Simply-Cyan-Circles/scalable/mimes/application-x-deb.svg

<svg xmlns="http://www.w3.org/2000/svg" width="48" height="48" viewBox="0 0 12.7 12.7"><path d="M1.215.856L.142 3.66h6.04V.856H1.215zm5.174 0V3.66h6.115L11.402.856H6.39zM.194 3.893v6.31c0 .636.246 1.181.737 1.633.491.453 1.083.679 1.775.679H9.96c.692 0 1.283-.226 1.775-.679.49-.452.736-.997.736-1.634v-6.31h-1.116v6.31c0 .354-.136.656-.41.908a1.403 1.403 0 0 1-.985.377H2.706c-.384 0-.712-.126-.986-.377a1.19 1.19 0 0 1-.41-.908v-6.31H.195zm6.467.86l-.156.013c-.262.024.142.004.156-.013zm-.385.041c-.03-.029-.336.102-.286.017a4.26 4.26 0 0 0-.771.368 1.964 1.964 0 0 0-.525.422c-.183.164-.218.427-.384.596-.143.166-.219.504-.302.745.044.212 0 .43.016.646-.05.885.35 1.766.997 2.362.441.423 1.04.708 1.66.67-.203-.077-.46-.049-.638-.203-.062-.047-.161-.173-.195-.182.088.163-.214-.094-.276-.09.114-.108-.18-.13-.199-.265-.164.057-.203-.301-.256-.24-.046-.07-.312-.349-.203-.36-.122-.119-.13-.279-.232-.46.126.144.104-.008.021-.116-.106-.075-.352-.224-.265-.355-.054-.08-.08-.164-.051-.259-.127-.25-.07-.551-.044-.821.008-.182.028-.364.128-.52.011-.075.166-.22.063-.242a2.33 2.33 0 0 1 .553-.582c.047-.043.386-.155.213-.127.029-.145.353-.18.491-.25-.253.058.019-.038.12-.1.04-.075.52-.147.264-.064.03-.009.438-.09.624-.037.477.042.88.365 1.119.766.122.182.168.43.215.618-.006.22.03.445-.041.658.109-.231.006.197-.041.256-.177.065-.062.306-.272.368-.06.071-.355.286-.209.108-.12.113-.262.206-.413.221-.58.183-1.22-.363-1.204-.955-.042.072-.04-.07-.024-.15.048-.489.567-.85 1.042-.73.1-.028.469.297.281.1-.33-.366-1.003-.304-1.24.134-.135.102-.15.28-.228.416-.052.279-.02.589.15.824.095.206.388.302.453.492-.122-.009-.48-.421-.297-.178.222.228-.087-.035-.147-.13-.163-.181-.03.046.05.11.297.28.735.499 1.148.376-.246-.014-.563.016-.741-.203.342.117.755.153 1.1-.005.232-.089.419-.276.592-.429-.035.241.022-.148.091-.199.09.168.05-.053.119-.12.076-.095.14-.572.125-.225-.062.243.045-.057.015-.14-.017-.17.025-.048.052.043-.05-.12.1-.359.033-.385-.06-.16.003-.257-.095-.418.147.22.026-.14.009-.225-.077.03-.168-.212 0-.173.085-.011.163.329.209.444.086.306-.017-.154-.05-.225-.019-.055-.076-.355.022-.173-.096-.343-.323-.637-.592-.865-.068-.065-.452-.332-.223-.116-.136-.065-.234-.246-.416-.16-.137-.045-.275-.125-.42-.16-.192-.095-.189-.014-.362-.027-.079.017-.374.042-.133-.018.26-.042-.208-.06.018-.025.065.023-.145.026-.186.014-.135 0-.175.007-.032-.066v-.001zM4.132 6.007l-.002.05c-.127.238.166-.05.002-.05zm-.103.443c-.127.248-.01.28 0 0zm3.455.653l-.022.03c-.01.209.101.031.022-.03zm1.072.294c-.056.194-.092.398-.186.58.097-.174.158-.38.186-.58zm-1.126.067c-.038.074-.06.193-.16.214.023.075.178-.097.16-.214zm-.096.06c-.008.007-.026.03-.061.076a.149.149 0 0 0-.004.078c.015-.061.088-.177.065-.154zm-.3.312a.558.558 0 0 1-.161.016c-.277-.04.112.171.16-.016zm-1.23.012c.001.04.024.077.042.112.125.222.017-.039-.042-.112zm-.079.137c-.044.125.12.228.187.318a3.81 3.81 0 0 0-.187-.318z" fill="#5beedc"/></svg>

<?xml version="1.0" encoding="UTF-8" standalone="no"?>
<svg
   xmlns:dc="http://purl.org/dc/elements/1.1/"
   xmlns:cc="http://creativecommons.org/ns#"
   xmlns:rdf="http://www.w3.org/1999/02/22-rdf-syntax-ns#"
   xmlns:svg="http://www.w3.org/2000/svg"
   xmlns="http://www.w3.org/2000/svg"
   xmlns:sodipodi="http://sodipodi.sourceforge.net/DTD/sodipodi-0.dtd"
   xmlns:inkscape="http://www.inkscape.org/namespaces/inkscape"
   width="48"
   height="48"
   viewBox="0 0 12.7 12.7"
   version="1.1"
   id="svg4"
   sodipodi:docname="application-x-deb.svg"
   inkscape:version="0.92.4 (5da689c313, 2019-01-14)">
  <metadata
     id="metadata10">
    <rdf:RDF>
      <cc:Work
         rdf:about="">
        <dc:format>image/svg+xml</dc:format>
        <dc:type
           rdf:resource="http://purl.org/dc/dcmitype/StillImage" />
        <dc:title></dc:title>
      </cc:Work>
    </rdf:RDF>
  </metadata>
  <defs
     id="defs8" />
  <sodipodi:namedview
     pagecolor="#ffffff"
     bordercolor="#666666"
     borderopacity="1"
     objecttolerance="10"
     gridtolerance="10"
     guidetolerance="10"
     inkscape:pageopacity="0"
     inkscape:pageshadow="2"
     inkscape:window-width="1087"
     inkscape:window-height="480"
     id="namedview6"
     showgrid="false"
     inkscape:zoom="4.9166667"
     inkscape:cx="2.1355932"
     inkscape:cy="24"
     inkscape:window-x="0"
     inkscape:window-y="25"
     inkscape:window-maximized="0"
     inkscape:current-layer="svg4" />
  <path
     d="M 1.215,0.856 0.142,3.66 h 6.04 V 0.856 Z m 5.174,0 V 3.66 h 6.115 L 11.402,0.856 H 6.39 Z M 0.194,3.893 v 6.31 c 0,0.636 0.246,1.181 0.737,1.633 0.491,0.453 1.083,0.679 1.775,0.679 H 9.96 c 0.692,0 1.283,-0.226 1.775,-0.679 0.49,-0.452 0.736,-0.997 0.736,-1.634 v -6.31 h -1.116 v 6.31 c 0,0.354 -0.136,0.656 -0.41,0.908 A 1.403,1.403 0 0 1 9.96,11.487 H 2.706 C 2.322,11.487 1.994,11.361 1.72,11.11 A 1.19,1.19 0 0 1 1.31,10.202 V 3.892 H 0.195 Z M 6.661,4.753 6.505,4.766 C 6.243,4.79 6.647,4.77 6.661,4.753 Z M 6.276,4.794 C 6.246,4.765 5.94,4.896 5.99,4.811 A 4.26,4.26 0 0 0 5.219,5.179 1.964,1.964 0 0 0 4.694,5.601 C 4.511,5.765 4.476,6.028 4.31,6.197 4.167,6.363 4.091,6.701 4.008,6.942 c 0.044,0.212 0,0.43 0.016,0.646 -0.05,0.885 0.35,1.766 0.997,2.362 0.441,0.423 1.04,0.708 1.66,0.67 C 6.478,10.543 6.221,10.571 6.043,10.417 5.981,10.37 5.882,10.244 5.848,10.235 5.936,10.398 5.634,10.141 5.572,10.145 5.686,10.037 5.392,10.015 5.373,9.88 5.209,9.937 5.17,9.579 5.117,9.64 5.071,9.57 4.805,9.291 4.914,9.28 4.792,9.161 4.784,9.001 4.682,8.82 4.808,8.964 4.786,8.812 4.703,8.704 4.597,8.629 4.351,8.48 4.438,8.349 4.384,8.269 4.358,8.185 4.387,8.09 4.26,7.84 4.317,7.539 4.343,7.269 4.351,7.087 4.371,6.905 4.471,6.749 4.482,6.674 4.637,6.529 4.534,6.507 A 2.33,2.33 0 0 1 5.087,5.925 C 5.134,5.882 5.473,5.77 5.3,5.798 5.329,5.653 5.653,5.618 5.791,5.548 5.538,5.606 5.81,5.51 5.911,5.448 5.951,5.373 6.431,5.301 6.175,5.384 6.205,5.375 6.613,5.294 6.799,5.347 7.276,5.389 7.679,5.712 7.918,6.113 8.04,6.295 8.086,6.543 8.133,6.731 8.127,6.951 8.163,7.176 8.092,7.389 8.201,7.158 8.098,7.586 8.051,7.645 7.874,7.71 7.989,7.951 7.779,8.013 7.719,8.084 7.424,8.299 7.57,8.121 7.45,8.234 7.308,8.327 7.157,8.342 6.577,8.525 5.937,7.979 5.953,7.387 5.911,7.459 5.913,7.317 5.929,7.237 5.977,6.748 6.496,6.387 6.971,6.507 7.071,6.479 7.44,6.804 7.252,6.607 6.922,6.241 6.249,6.303 6.012,6.741 5.877,6.843 5.862,7.021 5.784,7.157 5.732,7.436 5.764,7.746 5.934,7.981 6.029,8.187 6.322,8.283 6.387,8.473 6.265,8.464 5.907,8.052 6.09,8.295 6.312,8.523 6.003,8.26 5.943,8.165 5.78,7.984 5.913,8.211 5.993,8.275 6.29,8.555 6.728,8.774 7.141,8.651 6.895,8.637 6.578,8.667 6.4,8.448 6.742,8.565 7.155,8.601 7.5,8.443 7.732,8.354 7.919,8.167 8.092,8.014 8.057,8.255 8.114,7.866 8.183,7.815 8.273,7.983 8.233,7.762 8.302,7.695 8.378,7.6 8.442,7.123 8.427,7.47 8.365,7.713 8.472,7.413 8.442,7.33 8.425,7.16 8.467,7.282 8.494,7.373 8.444,7.253 8.594,7.014 8.527,6.988 8.467,6.828 8.53,6.731 8.432,6.57 8.579,6.79 8.458,6.43 8.441,6.345 8.364,6.375 8.273,6.133 8.441,6.172 8.526,6.161 8.604,6.501 8.65,6.616 8.736,6.922 8.633,6.462 8.6,6.391 8.581,6.336 8.524,6.036 8.622,6.218 8.526,5.875 8.299,5.581 8.03,5.353 7.962,5.288 7.578,5.021 7.807,5.237 7.671,5.172 7.573,4.991 7.391,5.077 7.254,5.032 7.116,4.952 6.971,4.917 6.779,4.822 6.782,4.903 6.609,4.89 6.53,4.907 6.235,4.932 6.476,4.872 6.736,4.83 6.268,4.812 6.494,4.847 6.559,4.87 6.349,4.873 6.308,4.861 6.173,4.861 6.133,4.868 6.276,4.795 Z M 4.132,6.007 4.13,6.057 C 4.003,6.295 4.296,6.007 4.132,6.007 Z M 4.029,6.45 c -0.127,0.248 -0.01,0.28 0,0 z M 7.484,7.103 7.462,7.133 C 7.452,7.342 7.563,7.164 7.484,7.103 Z M 8.556,7.397 C 8.5,7.591 8.464,7.795 8.37,7.977 8.467,7.803 8.528,7.597 8.556,7.397 Z M 7.43,7.464 C 7.392,7.538 7.37,7.657 7.27,7.678 7.293,7.753 7.448,7.581 7.43,7.464 Z M 7.334,7.524 C 7.326,7.531 7.308,7.554 7.273,7.6 A 0.149,0.149 0 0 0 7.269,7.678 C 7.284,7.617 7.357,7.501 7.334,7.524 Z m -0.3,0.312 A 0.558,0.558 0 0 1 6.873,7.852 C 6.596,7.812 6.985,8.023 7.033,7.836 Z M 5.804,7.848 C 5.805,7.888 5.828,7.925 5.846,7.96 5.971,8.182 5.863,7.921 5.804,7.848 Z M 5.725,7.985 C 5.681,8.11 5.845,8.213 5.912,8.303 A 3.81,3.81 0 0 0 5.725,7.985 Z"
     id="path2"
     inkscape:connector-curvature="0"
     style="fill:#5beedc" />
</svg>
